public/docker-sm-logo.svg

<svg width="103" height="105" viewBox="0 0 103 105" fill="none" xmlns="http://www.w3.org/2000/svg">
<g clip-path="url(#clip0_9_40747)">
<path d="M77.9966 31.8193L79.3542 32.6119L79.3929 32.6392L79.4358 32.668C81.1847 33.7955 82.6805 35.2773 83.8276 37.0189C84.9747 38.7605 85.7479 40.7235 86.0979 42.7825C87.4146 42.556 88.7476 42.4381 90.0834 42.4301C95.1633 42.4301 97.5223 44.2352 97.7898 44.4553L98.7097 45.1155L98.3162 46.2662C97.6892 47.8323 96.7333 49.2439 95.5138 50.4043C94.1123 51.75 92.4552 52.7976 90.6416 53.4844C88.8281 54.1712 86.8954 54.4832 84.9591 54.4015H84.0836C81.8105 60.7588 78.4132 66.6506 74.0555 71.7927C71.1155 75.1476 67.6551 78.0022 63.8084 80.2459C59.1337 82.9274 54.04 84.7912 48.7446 85.7577C44.9454 86.4607 41.0903 86.8146 37.2272 86.8149C28.6882 86.8149 21.112 85.1852 16.4713 82.3243C12.0414 79.3697 8.71398 75.0183 7.01247 69.9545C5.13113 64.8112 4.20969 59.3631 4.29442 53.8837C4.29442 53.1013 4.60354 52.351 5.15379 51.7977C5.70403 51.2445 6.45032 50.9336 7.22849 50.9336H69.4147C71.7919 50.8239 74.1259 50.256 76.29 49.2608C75.3256 47.7084 74.6883 45.9735 74.4177 44.1634C74.147 42.3534 74.2487 40.5068 74.7164 38.7378C75.2074 36.7375 76.0218 34.8317 77.1269 33.0966L77.9966 31.8193ZM15.7274 59.2488C15.0345 59.2488 14.3572 59.4554 13.781 59.8424C13.2049 60.2295 12.7558 60.7796 12.4907 61.4233C12.2255 62.067 12.1561 62.7752 12.2913 63.4585C12.4265 64.1418 12.7602 64.7695 13.2501 65.2621C13.7401 65.7548 14.3643 66.0903 15.0439 66.2262C15.7235 66.3621 16.428 66.2923 17.0681 66.0257C17.7083 65.7591 18.2555 65.3076 18.6404 64.7283C19.0254 64.1491 19.2308 63.468 19.2308 62.7713C19.2308 61.8371 18.8617 60.9411 18.2047 60.2805C17.5477 59.6199 16.6566 59.2488 15.7274 59.2488Z" fill="#0091E2"/>
<path d="M13.0095 49.1228H21.3296C21.4275 49.1236 21.5246 49.1048 21.6152 49.0675C21.7058 49.0301 21.7881 48.9751 21.8574 48.9055C21.9266 48.8359 21.9813 48.7531 22.0185 48.662C22.0556 48.5709 22.0743 48.4733 22.0735 48.3749V40.8954C22.0743 40.797 22.0556 40.6994 22.0185 40.6083C21.9813 40.5172 21.9266 40.4345 21.8574 40.3648C21.7881 40.2952 21.7058 40.2402 21.6152 40.2029C21.5246 40.1655 21.4275 40.1467 21.3296 40.1475H13.0095C12.9116 40.1467 12.8146 40.1655 12.724 40.2029C12.6334 40.2402 12.5511 40.2952 12.4818 40.3648C12.4126 40.4345 12.3578 40.5172 12.3207 40.6083C12.2836 40.6994 12.2649 40.797 12.2656 40.8954V48.3749C12.2714 48.5714 12.3516 48.7583 12.4899 48.8974C12.6282 49.0364 12.8141 49.117 13.0095 49.1228Z" fill="#0091E2"/>
<path d="M24.4861 49.1228H32.8062C32.9041 49.1236 33.0012 49.1048 33.0918 49.0675C33.1824 49.0301 33.2647 48.9751 33.3339 48.9055C33.4031 48.8359 33.4579 48.7531 33.495 48.662C33.5321 48.5709 33.5509 48.4733 33.5501 48.3749V40.8954C33.5509 40.797 33.5321 40.6994 33.495 40.6083C33.4579 40.5172 33.4031 40.4345 33.3339 40.3648C33.2647 40.2952 33.1824 40.2402 33.0918 40.2029C33.0012 40.1655 32.9041 40.1467 32.8062 40.1475H24.4861C24.3882 40.1467 24.2911 40.1655 24.2005 40.2029C24.1099 40.2402 24.0276 40.2952 23.9584 40.3648C23.8892 40.4345 23.8344 40.5172 23.7973 40.6083C23.7602 40.6994 23.7414 40.797 23.7422 40.8954V48.3749C23.748 48.5714 23.8282 48.7583 23.9665 48.8974C24.1047 49.0364 24.2906 49.117 24.4861 49.1228Z" fill="#0091E2"/>
<path d="M36.1742 49.1228H44.4943C44.5922 49.1236 44.6893 49.1048 44.7799 49.0675C44.8705 49.0301 44.9528 48.9751 45.022 48.9055C45.0912 48.8359 45.146 48.7531 45.1831 48.662C45.2202 48.5709 45.2389 48.4733 45.2382 48.3749V40.8954C45.2389 40.797 45.2202 40.6994 45.1831 40.6083C45.146 40.5172 45.0912 40.4345 45.022 40.3648C44.9528 40.2952 44.8705 40.2402 44.7799 40.2029C44.6893 40.1655 44.5922 40.1467 44.4943 40.1475H36.1742C36.0763 40.1467 35.9792 40.1655 35.8886 40.2029C35.798 40.2402 35.7157 40.2952 35.6465 40.3648C35.5772 40.4345 35.5225 40.5172 35.4854 40.6083C35.4482 40.6994 35.4295 40.797 35.4303 40.8954V48.3749C35.4262 48.4742 35.4427 48.5733 35.4787 48.6658C35.5146 48.7584 35.5693 48.8425 35.6392 48.9128C35.7091 48.9831 35.7927 49.038 35.8848 49.0742C35.9769 49.1103 36.0754 49.1269 36.1742 49.1228Z" fill="#0091E2"/>
<path d="M47.697 49.1228H56.0171C56.115 49.1236 56.2121 49.1048 56.3027 49.0675C56.3933 49.0301 56.4756 48.9751 56.5449 48.9055C56.6141 48.8359 56.6688 48.7531 56.706 48.662C56.7431 48.5709 56.7618 48.4733 56.761 48.3749V40.8954C56.7618 40.797 56.7431 40.6994 56.706 40.6083C56.6688 40.5172 56.6141 40.4345 56.5449 40.3648C56.4756 40.2952 56.3933 40.2402 56.3027 40.2029C56.2121 40.1655 56.115 40.1467 56.0171 40.1475H47.697C47.5991 40.1467 47.5021 40.1655 47.4115 40.2029C47.3209 40.2402 47.2386 40.2952 47.1693 40.3648C47.1001 40.4345 47.0453 40.5172 47.0082 40.6083C46.9711 40.6994 46.9524 40.797 46.9531 40.8954V48.3749C46.9524 48.4733 46.9711 48.5709 47.0082 48.662C47.0453 48.7531 47.1001 48.8359 47.1693 48.9055C47.2386 48.9751 47.3209 49.0301 47.4115 49.0675C47.5021 49.1048 47.5991 49.1236 47.697 49.1228Z" fill="#0091E2"/>
<path d="M24.4861 38.4243H32.8062C33.0017 38.4186 33.1876 38.3379 33.3258 38.1989C33.4641 38.0598 33.5443 37.8729 33.5501 37.6764V30.1969C33.5509 30.0985 33.5321 30.0009 33.495 29.9098C33.4579 29.8187 33.4031 29.736 33.3339 29.6664C33.2647 29.5968 33.1824 29.5417 33.0918 29.5044C33.0012 29.4671 32.9041 29.4482 32.8062 29.449H24.4861C24.3882 29.4482 24.2911 29.4671 24.2005 29.5044C24.1099 29.5417 24.0276 29.5968 23.9584 29.6664C23.8892 29.736 23.8344 29.8187 23.7973 29.9098C23.7602 30.0009 23.7414 30.0985 23.7422 30.1969V37.6764C23.7553 37.8704 23.8378 38.0532 23.9746 38.1907C24.1114 38.3282 24.2931 38.4112 24.4861 38.4243Z" fill="#0091E2"/>
<path d="M36.1736 38.4243H44.4937C44.6892 38.4186 44.8751 38.3379 45.0133 38.1989C45.1516 38.0598 45.2318 37.8729 45.2376 37.6764V30.1969C45.2384 30.0985 45.2196 30.0009 45.1825 29.9098C45.1454 29.8187 45.0906 29.736 45.0214 29.6664C44.9522 29.5968 44.8699 29.5417 44.7793 29.5044C44.6887 29.4671 44.5916 29.4482 44.4937 29.449H36.1736C36.0757 29.4482 35.9786 29.4671 35.888 29.5044C35.7974 29.5417 35.7151 29.5968 35.6459 29.6664C35.5767 29.736 35.5219 29.8187 35.4848 29.9098C35.4477 30.0009 35.4289 30.0985 35.4297 30.1969V37.6764C35.4289 37.7748 35.4477 37.8724 35.4848 37.9635C35.5219 38.0546 35.5767 38.1374 35.6459 38.207C35.7151 38.2766 35.7974 38.3316 35.888 38.369C35.9786 38.4063 36.0757 38.4251 36.1736 38.4243Z" fill="#0091E2"/>
<path d="M47.697 38.4243H56.0171C56.2126 38.4186 56.3985 38.3379 56.5368 38.1989C56.6751 38.0598 56.7553 37.8729 56.761 37.6764V30.1969C56.7553 30.0004 56.6751 29.8135 56.5368 29.6745C56.3985 29.5354 56.2126 29.4548 56.0171 29.449H47.697C47.5991 29.4482 47.5021 29.4671 47.4115 29.5044C47.3209 29.5417 47.2386 29.5968 47.1693 29.6664C47.1001 29.736 47.0453 29.8187 47.0082 29.9098C46.9711 30.0009 46.9524 30.0985 46.9531 30.1969V37.6764C46.9589 37.8729 47.0391 38.0598 47.1774 38.1989C47.3157 38.3379 47.5016 38.4186 47.697 38.4243Z" fill="#0091E2"/>
<path d="M47.697 27.6813H56.0171C56.115 27.6821 56.2121 27.6632 56.3027 27.6259C56.3933 27.5886 56.4756 27.5335 56.5449 27.4639C56.6141 27.3943 56.6688 27.3116 56.706 27.2205C56.7431 27.1294 56.7618 27.0318 56.761 26.9333V19.4467C56.7553 19.2502 56.6751 19.0633 56.5368 18.9242C56.3985 18.7852 56.2126 18.7045 56.0171 18.6988H47.697C47.5991 18.698 47.5021 18.7168 47.4115 18.7541C47.3209 18.7914 47.2386 18.8465 47.1693 18.9161C47.1001 18.9857 47.0453 19.0685 47.0082 19.1596C46.9711 19.2507 46.9524 19.3483 46.9531 19.4467V26.9262C46.9589 27.1227 47.0391 27.3096 47.1774 27.4486C47.3157 27.5877 47.5016 27.6683 47.697 27.6741" fill="#0091E2"/>
<path d="M59.2986 49.1228H67.6187C67.7166 49.1236 67.8137 49.1048 67.9043 49.0675C67.9949 49.0301 68.0772 48.9751 68.1464 48.9055C68.2156 48.8359 68.2704 48.7531 68.3075 48.662C68.3446 48.5709 68.3634 48.4733 68.3626 48.3749V40.8954C68.3634 40.797 68.3446 40.6994 68.3075 40.6083C68.2704 40.5172 68.2156 40.4345 68.1464 40.3648C68.0772 40.2952 67.9949 40.2402 67.9043 40.2029C67.8137 40.1655 67.7166 40.1467 67.6187 40.1475H59.2986C59.2007 40.1467 59.1036 40.1655 59.013 40.2029C58.9224 40.2402 58.8401 40.2952 58.7709 40.3648C58.7017 40.4345 58.6469 40.5172 58.6098 40.6083C58.5727 40.6994 58.5539 40.797 58.5547 40.8954V48.3749C58.5605 48.5714 58.6407 48.7583 58.779 48.8974C58.9172 49.0364 59.1031 49.117 59.2986 49.1228Z" fill="#0091E2"/>
</g>
<defs>
<clipPath id="clip0_9_40747">
<rect width="103" height="105" fill="white"/>
</clipPath>
</defs>
</svg>

<svg xmlns="http://www.w3.org/2000/svg" width="103" height="105" fill="none" viewBox="0 0 103 105"><g fill="#0091e2" clip-path="url(#a)"><path d="m77.997 31.82 1.357.792.039.027.043.029a15 15 0 0 1 4.392 4.35 15.1 15.1 0 0 1 2.27 5.764 24.4 24.4 0 0 1 3.985-.352c5.08 0 7.44 1.805 7.707 2.025l.92.66-.394 1.151a11.7 11.7 0 0 1-2.802 4.138 14.4 14.4 0 0 1-4.872 3.08 14.3 14.3 0 0 1-5.683.917h-.875a56.1 56.1 0 0 1-10.029 17.392 41.3 41.3 0 0 1-10.247 8.453 47.4 47.4 0 0 1-15.063 5.512 63.3 63.3 0 0 1-11.518 1.057c-8.539 0-16.115-1.63-20.756-4.49a24.1 24.1 0 0 1-9.459-12.37 44.8 44.8 0 0 1-2.718-16.071c0-.783.31-1.533.86-2.086a2.93 2.93 0 0 1 2.074-.864h62.187a18.5 18.5 0 0 0 6.875-1.673 13.447 13.447 0 0 1-1.574-10.523 18.9 18.9 0 0 1 2.41-5.641zm-62.27 27.429a3.5 3.5 0 0 0-1.946.593 3.5 3.5 0 0 0-1.29 1.581 3.54 3.54 0 0 0 .76 3.84 3.486 3.486 0 0 0 3.818.764 3.5 3.5 0 0 0 1.571-1.299 3.536 3.536 0 0 0-.435-4.447 3.5 3.5 0 0 0-2.478-1.032"/><path d="M13.01 49.123h8.32a.73.73 0 0 0 .689-.461.75.75 0 0 0 .055-.287v-7.48a.745.745 0 0 0-.459-.692.7.7 0 0 0-.285-.056h-8.32a.73.73 0 0 0-.69.461.8.8 0 0 0-.054.287v7.48a.773.773 0 0 0 .743.748M24.486 49.123h8.32a.73.73 0 0 0 .689-.461.75.75 0 0 0 .055-.287v-7.48a.745.745 0 0 0-.458-.692.7.7 0 0 0-.286-.056h-8.32a.73.73 0 0 0-.689.461.75.75 0 0 0-.055.287v7.48a.773.773 0 0 0 .744.748M36.174 49.123h8.32a.73.73 0 0 0 .69-.461.8.8 0 0 0 .054-.287v-7.48a.75.75 0 0 0-.458-.692.7.7 0 0 0-.286-.056h-8.32a.73.73 0 0 0-.689.461.7.7 0 0 0-.055.287v7.48a.72.72 0 0 0 .744.748M47.697 49.123h8.32a.73.73 0 0 0 .689-.461.75.75 0 0 0 .055-.287v-7.48a.745.745 0 0 0-.458-.692.7.7 0 0 0-.286-.056h-8.32a.73.73 0 0 0-.689.461.8.8 0 0 0-.055.287v7.48a.75.75 0 0 0 .458.693q.138.056.286.055M24.486 38.424h8.32a.773.773 0 0 0 .744-.748v-7.48a.745.745 0 0 0-.458-.692.7.7 0 0 0-.286-.055h-8.32a.735.735 0 0 0-.689.46.75.75 0 0 0-.055.288v7.48a.806.806 0 0 0 .744.747M36.174 38.424h8.32a.773.773 0 0 0 .744-.748v-7.48a.745.745 0 0 0-.459-.692.7.7 0 0 0-.285-.055h-8.32a.735.735 0 0 0-.69.46.75.75 0 0 0-.054.288v7.48a.745.745 0 0 0 .458.692c.09.037.188.056.286.055M47.697 38.424h8.32a.765.765 0 0 0 .744-.748v-7.48a.77.77 0 0 0-.744-.747h-8.32a.73.73 0 0 0-.689.46.8.8 0 0 0-.055.288v7.48a.773.773 0 0 0 .744.747M47.697 27.681h8.32a.735.735 0 0 0 .689-.46.75.75 0 0 0 .055-.288v-7.486a.773.773 0 0 0-.744-.748h-8.32a.73.73 0 0 0-.689.46.8.8 0 0 0-.055.288v7.48a.773.773 0 0 0 .744.747M59.299 49.123h8.32a.73.73 0 0 0 .689-.461.75.75 0 0 0 .055-.287v-7.48a.745.745 0 0 0-.459-.692.7.7 0 0 0-.285-.056h-8.32a.73.73 0 0 0-.69.461.75.75 0 0 0-.054.287v7.48a.773.773 0 0 0 .744.748"/></g><defs><clipPath id="a"><path fill="#fff" d="M0 0h103v105H0z"/></clipPath></defs></svg>
